X: 26496
T: Michael Joseph Dunne
R: hornpipe
M: 4/4
K: Dmajor
|:Ac|dAGE DFAc|dAcA BFAF|GABc dAFA|GEFD EGAc|
dAGE D2 Ac|dAcA BF A2|GABc dA F2|GEFE D2:|
|:cd|eA^GA fAGA|gAfA eA^GA|gAfA eAdf|edcB ABcA|
dAGE DFAc|dAcA B2 AF|GABc d2 FA|G2 FE D2:|

